apps/mobile/assets/icons/phosphor/arrows-out-line-horizontal.svg

<svg
  height="32"
  viewBox="0 0 256 256"
  width="32"
  xmlns="http://www.w3.org/2000/svg"
>
  <path
    d="m136 40v176a8 8 0 0 1 -16 0v-176a8 8 0 0 1 16 0zm-40 80h-60.69l18.35-18.34a8 8 0 0 0 -11.32-11.32l-32 32a8 8 0 0 0 0 11.32l32 32a8 8 0 0 0 11.32-11.32l-18.35-18.34h60.69a8 8 0 0 0 0-16zm149.66 2.34-32-32a8 8 0 0 0 -11.32 11.32l18.35 18.34h-60.69a8 8 0 0 0 0 16h60.69l-18.35 18.34a8 8 0 0 0 11.32 11.32l32-32a8 8 0 0 0 0-11.32z"
  />
</svg>

<svg xmlns="http://www.w3.org/2000/svg" width="32" height="32" fill="#000000" viewBox="0 0 256 256"><path d="M136,40V216a8,8,0,0,1-16,0V40a8,8,0,0,1,16,0ZM96,120H35.31l18.35-18.34A8,8,0,0,0,42.34,90.34l-32,32a8,8,0,0,0,0,11.32l32,32a8,8,0,0,0,11.32-11.32L35.31,136H96a8,8,0,0,0,0-16Zm149.66,2.34-32-32a8,8,0,0,0-11.32,11.32L220.69,120H160a8,8,0,0,0,0,16h60.69l-18.35,18.34a8,8,0,0,0,11.32,11.32l32-32A8,8,0,0,0,245.66,122.34Z"></path></svg>
